svg/tryton.svg

<svg viewBox="0 0 20 20" xmlns="http://www.w3.org/2000/svg">
<rect width="100%" height="100%" fill="#202628"/>
<path d="M17.4988 9.91226C16.5016 10.1816 15.6795 11.7975 15.1674 12.767C14.6419 13.7365 13.6851 15.9987 12.27 16.5508C10.8685 17.1029 8.67187 16.3758 7.59376 15.9584C6.51566 15.5544 4.35945 15.3255 2.7962 14.5849C1.24642 13.8442 2.2841 12.2822 3.17353 12.8074C4.06297 13.3325 3.91473 13.9924 5.32975 14.1809C6.74476 14.3694 7.10861 14.0328 7.18947 13.4403C7.27033 12.8478 7.14904 11.6628 6.81214 11.0299C6.47523 10.397 5.10065 7.16527 4.54812 6.23614C3.99559 5.307 2.66143 3.52954 3.84735 3.23329C5.04674 2.93705 5.47798 4.31054 5.45103 5.19928C5.4106 6.08801 6.23266 7.43458 6.97386 8.83501C7.41562 9.67807 8.1341 10.3437 9.00877 10.7202C9.83082 10.9491 9.93864 10.1681 10.0869 9.87187C10.2351 9.57562 10.7607 6.12841 10.2755 4.56639C9.7904 3.00437 10.6798 2.34456 11.5423 3.00437C12.4048 3.66419 12.3239 4.63372 11.9197 4.86264C11.5154 5.09155 11.5827 7.90588 11.5827 7.90588C11.5827 7.90588 11.3536 11.3935 12.3913 11.8783C13.429 12.363 15.437 10.2758 16.0973 8.94274C16.7711 7.60963 17.135 8.16173 17.4315 8.16173C17.7279 8.17519 18.5096 9.65642 17.4988 9.91226Z" fill="white"/>
</svg>

<svg xmlns="http://www.w3.org/2000/svg" viewBox="0 0 20 20">
  <rect width="100%" height="100%" fill="#202628"/>
  <path fill="#fff" d="M17.5 9.91c-1 .27-1.82 1.89-2.33 2.86-.53.97-1.48 3.23-2.9 3.78-1.4.55-3.6-.17-4.68-.6-1.07-.4-3.23-.62-4.8-1.37-1.54-.74-.5-2.3.38-1.77.9.52.74 1.18 2.16 1.37 1.41.19 1.78-.15 1.86-.74.08-.6-.04-1.78-.38-2.41-.33-.63-1.7-3.86-2.26-4.8-.55-.92-1.89-2.7-.7-3 1.2-.3 1.63 1.08 1.6 1.97-.04.89.78 2.23 1.52 3.64.45.84 1.16 1.5 2.04 1.88.82.23.93-.55 1.08-.85.15-.3.67-3.74.19-5.3-.49-1.57.4-2.23 1.26-1.57.86.66.78 1.63.38 1.86-.4.23-.34 3.05-.34 3.05s-.23 3.48.81 3.97c1.04.48 3.05-1.6 3.7-2.94.68-1.33 1.05-.78 1.34-.78.3.02 1.08 1.5.07 1.75Z"/>
</svg>
